X:1
T: The Hillside
C:
R:Jig
Q:180
K:Em
M:6/8
L:1/16
|:d2|B4E2 E2F2E2|B2A2B2 d4B2|A2F2D2 D2E2D2|A2F2A2 d4d2|
B4E2 E2F2E2|B2A2B2 d4e2|d2B2d2 A2F2D2|E2F2E2 E4:|
|:B2|e2f2e2 e2d2B2|e2f2g2 g2f2e2|d2e2d2 d2A2B2|d2e2f2 f2e2d2|
g2b2g2 f2a2f2|e2g2e2 B2d2B2|d2B2d2 A2F2D2|E2F2E2 E4:|
